X: 2
T:Barn Dance 1
% Nottingham Music Database
S:McCusker Brothers
M:4/4
L:1/8
R:Hornpipe
K:D
f2/3g2/3^g2/3|"D"a2a2 f2f2|"D"dA^GA B2"d#"A2|"Em"g2g2 e2e2|"A7"cA^GA B2A2|
"D"a2a2 f2f2|"D"dA^GA B2"d#"A2|"A7"cAce ba g2/3f2/3e2/3|"D"d2f2 d2:|:
f2/3g2/3^g2/3|"D"a2a2 f2f2|"D"dA^GA B2"d#"A2|"Em"g2g2 e2e2|"A7"cA^GA B2A2|
"D"a2a2 f2f2|"D"dA^GA B2"d#"A2|"A7"cAce ba g2/3f2/3e2/3|"D"d2f2 d2:|:
e2|"D"f^ef2/3g2/3a2/3 d2d2|"Em"e^ e/3f/3g/3 B2B2|"A7"cBcB Acec|"D"dcdf "A7"b2ag|
"D"f^e f2/3g2/3a2/3 d2d2|"Em"e^d e2/3f2/3g2/3 B2B2|"A7"cBcB Acec|"D"d2f2 d2:|:
f2/3g2/3^g2/3|"D"a2a2 f2f2|"D"dA^GA B2"d#"A2|"Em"g2g2 e2e2|"A7"cA^GA B2A2|
"D"a2a2 f2f2|"D"dA^GA B2"d#"A2|"A7"cAce ba g2/3f2/3e2/3|"D"d2f2 d2:|


